icons/svg/end-to-end-encryption-circle-filled.svg

<svg width="32" height="32" viewBox="0 0 32 32" xmlns="http://www.w3.org/2000/svg">
<path d="M20.4575 17.2135H20.6886C20.8495 17.2136 21.0038 17.2776 21.1175 17.3914C21.2313 17.5051 21.2953 17.6594 21.2954 17.8203V18.9906H19.8507V17.8203C19.8508 17.6594 19.9148 17.5051 20.0286 17.3914C20.1423 17.2776 20.2966 17.2136 20.4575 17.2135Z"/>
<path d="M16.0001 29.5041C23.4581 29.5041 29.5041 23.4581 29.5041 16.0001C29.5041 8.54204 23.4581 2.49609 16.0001 2.49609C8.54204 2.49609 2.49609 8.54204 2.49609 16.0001C2.49609 23.4581 8.54204 29.5041 16.0001 29.5041ZM9.88243 13.0003L9.88221 13.0117C9.84428 15.0207 10.3544 17.0064 11.3648 18.7704C12.2556 20.3256 13.5088 21.6618 15.0259 22.6744C15.2183 22.8028 15.4687 22.8029 15.6612 22.6744C15.81 22.5751 15.9562 22.4727 16.0998 22.3673V22.978L16.0998 22.9796C16.1001 23.2456 16.1441 23.5071 16.2278 23.7545C16.0374 23.879 15.8433 23.9988 15.6457 24.1138C15.5538 24.1648 15.4496 24.1916 15.3435 24.1916C15.2375 24.1916 15.1333 24.1648 15.0413 24.1138C13.0612 22.9608 11.4302 21.3261 10.3118 19.3736C9.19331 17.421 8.62674 15.2192 8.66885 12.9888V11.7515C8.66733 11.5521 8.71925 11.3556 8.8196 11.1812C8.91994 11.0068 9.06531 10.8604 9.2416 10.7561L13.5706 8.27125C14.1084 7.96811 14.7201 7.80835 15.3429 7.80835C15.9658 7.80835 16.5775 7.96811 17.1153 8.27125L21.4454 10.7561C21.6217 10.8604 21.7671 11.0068 21.8674 11.1812C21.9677 11.3556 22.0197 11.5521 22.0181 11.7515V12.9888C22.0311 13.6744 21.9866 14.3573 21.8861 15.0311C21.5133 14.8716 21.1088 14.7869 20.6954 14.7864C20.7792 14.2003 20.816 13.6071 20.8048 13.0118L20.8046 13.0003V12.4903C20.8046 12.0556 20.572 11.654 20.195 11.4377L16.5157 9.32639C16.1624 9.12805 15.7576 9.02192 15.3429 9.02192C14.9283 9.02192 14.5235 9.12804 14.1702 9.32636L10.4919 11.4377C10.1149 11.6541 9.88243 12.0555 9.88243 12.4902V13.0003ZM16.4685 10.5527L19.2231 12.2552C19.3352 12.3267 19.4277 12.427 19.4915 12.5465C19.5554 12.666 19.5884 12.8006 19.5874 12.9373V13.7851C19.5942 14.1695 19.5764 14.5528 19.5347 14.9324C19.0801 15.0787 18.6621 15.3316 18.3181 15.6756C17.7496 16.2441 17.4298 17.015 17.4289 17.819V18.0402C17.2027 18.155 16.9939 18.3057 16.8111 18.4884C16.3564 18.9431 16.1006 19.5595 16.0998 20.2026V21.0194C15.9166 21.1564 15.7277 21.286 15.5336 21.4078C15.4751 21.4427 15.4088 21.461 15.3413 21.461C15.2739 21.461 15.2076 21.4427 15.1491 21.4078C13.8894 20.6178 12.8518 19.4977 12.1403 18.1598C11.4288 16.8219 11.0684 15.3133 11.0952 13.7851V12.9373C11.0942 12.8006 11.1273 12.666 11.1911 12.5465C11.2549 12.427 11.3474 12.3267 11.4596 12.2552L14.2135 10.5527C14.5556 10.345 14.9447 10.2355 15.341 10.2355C15.7372 10.2355 16.1263 10.345 16.4685 10.5527ZM23.4875 23.8357C23.26 24.0632 22.9516 24.1911 22.6298 24.1916H18.5269C18.2052 24.1911 17.8968 24.0632 17.6693 23.8357C17.4418 23.6082 17.3138 23.2997 17.3134 22.978V20.2042C17.3138 19.8824 17.4418 19.574 17.6693 19.3465C17.8968 19.119 18.2052 18.991 18.5269 18.9906H18.6425V17.8203C18.643 17.3377 18.835 16.875 19.1762 16.5337C19.5175 16.1924 19.9802 16.0005 20.4628 16H20.6939C21.1766 16.0005 21.6393 16.1924 21.9805 16.5337C22.3218 16.875 22.5138 17.3377 22.5143 17.8203V18.9906H22.6298C22.9516 18.991 23.26 19.119 23.4875 19.3465C23.715 19.574 23.843 19.8825 23.8434 20.2042V22.978C23.843 23.2997 23.715 23.6082 23.4875 23.8357Z"/>
</svg>

<svg xmlns="http://www.w3.org/2000/svg" width="32" height="32" viewBox="0 0 32 32"><path d="M20.458 17.214h.23a.607.607 0 0 1 .607.606v1.17h-1.444v-1.17a.607.607 0 0 1 .607-.607M16 29.504c7.458 0 13.504-6.046 13.504-13.504S23.458 2.496 16 2.496 2.496 8.542 2.496 16 8.542 29.504 16 29.504M9.882 13v.012a11.15 11.15 0 0 0 1.483 5.758 11.7 11.7 0 0 0 3.66 3.904.57.57 0 0 0 .636 0q.223-.148.439-.307v.613c0 .266.044.527.128.774q-.286.188-.582.36a.62.62 0 0 1-.605 0 12.94 12.94 0 0 1-4.73-4.74 12.37 12.37 0 0 1-1.642-6.385V11.75c-.002-.199.05-.395.15-.57s.246-.32.423-.425l4.329-2.485a3.6 3.6 0 0 1 1.772-.463c.623 0 1.235.16 1.772.463l4.33 2.485c.177.104.322.25.422.425s.153.371.151.57v1.238q.02 1.03-.132 2.042a3 3 0 0 0-1.19-.245q.125-.88.109-1.774v-.522c0-.434-.233-.836-.61-1.052l-3.68-2.112a2.4 2.4 0 0 0-1.172-.304c-.415 0-.82.106-1.173.304l-3.678 2.112c-.377.216-.61.617-.61 1.052zm6.586-2.447 2.755 1.702a.8.8 0 0 1 .268.291c.064.12.097.255.096.391v.848q.01.577-.052 1.147a3.035 3.035 0 0 0-2.106 2.887v.221a2.43 2.43 0 0 0-1.33 2.163v.816a8 8 0 0 1-.565.389.38.38 0 0 1-.385 0 8.6 8.6 0 0 1-3.009-3.248 9 9 0 0 1-1.045-4.375v-.848a.8.8 0 0 1 .096-.39.8.8 0 0 1 .269-.292l2.753-1.702a2.17 2.17 0 0 1 2.255 0m7.02 13.283a1.22 1.22 0 0 1-.858.356h-4.103a1.215 1.215 0 0 1-1.214-1.214v-2.774a1.215 1.215 0 0 1 1.214-1.213h.115v-1.17A1.823 1.823 0 0 1 20.463 16h.232a1.82 1.82 0 0 1 1.82 1.82v1.17h.116a1.215 1.215 0 0 1 1.213 1.214v2.774c0 .322-.128.63-.355.858"/></svg>
